X: 498
T:The Steampacket
M:4/4
L:1/8
R:Reel
N:Posted to the woodenflute mailing list March 2002
Z:Pat Higgins turned into usable abc by Steve Mansfield
K:G
AG~G2 AGFD|AG~G2 Addc|AG~G2 AGFD|=FEFG ABcA:|
dg~g2 aggf|dgge fdcA|dg~g2 aggf|d^cde fd=cA| dg~g2 ag (3efg|abag ~f3g|af
(3gfe fde^c|dfeg fdcA||

